svg/material-icons/storefront/materialiconstwotone/24px.svg

<svg xmlns="http://www.w3.org/2000/svg" width="24" height="24" viewBox="0 0 24 24"><path d="M6.44 9.86 7.02 5H5.05L4.04 9.36c-.1.42-.01.84.25 1.17.14.18.44.47.94.47.61 0 1.13-.49 1.21-1.14zM9.71 11c.74 0 1.29-.59 1.29-1.31V5H9.04l-.55 4.52c-.05.39.07.78.33 1.07.23.26.55.41.89.41zm4.51 0c.41 0 .72-.15.96-.41.25-.29.37-.68.33-1.07L14.96 5H13v4.69c0 .72.55 1.31 1.22 1.31zm4.69-6.01L16.98 5l.58 4.86c.08.65.6 1.14 1.21 1.14.49 0 .8-.29.93-.47.26-.33.35-.76.25-1.17l-1.04-4.37z" opacity=".3"/><path d="m21.9 8.89-1.05-4.37c-.22-.9-1-1.52-1.91-1.52H5.05c-.9 0-1.69.63-1.9 1.52L2.1 8.89c-.24 1.02-.02 2.06.62 2.88.08.11.19.19.28.29V19c0 1.1.9 2 2 2h14c1.1 0 2-.9 2-2v-6.94c.09-.09.2-.18.28-.28.64-.82.87-1.87.62-2.89zM13 5h1.96l.54 4.52c.05.39-.07.78-.33 1.07-.22.26-.54.41-.95.41-.67 0-1.22-.59-1.22-1.31V5zM8.49 9.52 9.04 5H11v4.69c0 .72-.55 1.31-1.29 1.31-.34 0-.65-.15-.89-.41a1.42 1.42 0 0 1-.33-1.07zm-4.2 1.01c-.26-.33-.35-.76-.25-1.17L5.05 5h1.97l-.58 4.86c-.08.65-.6 1.14-1.21 1.14-.5 0-.8-.29-.94-.47zM19 19H5v-6.03c.08.01.15.03.23.03.87 0 1.66-.36 2.24-.95.6.6 1.4.95 2.31.95.87 0 1.65-.36 2.23-.93.59.57 1.39.93 2.29.93.84 0 1.64-.35 2.24-.95.58.59 1.37.95 2.24.95.08 0 .15-.02.23-.03V19zm.71-8.47c-.14.18-.44.47-.94.47-.61 0-1.14-.49-1.21-1.14L16.98 5l1.93-.01 1.05 4.37c.1.42.01.85-.25 1.17z"/></svg>

<svg xmlns="http://www.w3.org/2000/svg" enable-background="new 0 0 24 24" height="24" viewBox="0 0 24 24" width="24"><g><rect fill="none" height="24" width="24"/></g><g><g/><g><path d="M6.44,9.86L7.02,5H5.05L4.04,9.36c-0.1,0.42-0.01,0.84,0.25,1.17C4.43,10.71,4.73,11,5.23,11 C5.84,11,6.36,10.51,6.44,9.86z" opacity=".3"/><path d="M9.71,11C10.45,11,11,10.41,11,9.69V5H9.04L8.49,9.52c-0.05,0.39,0.07,0.78,0.33,1.07 C9.05,10.85,9.37,11,9.71,11z" opacity=".3"/><path d="M14.22,11c0.41,0,0.72-0.15,0.96-0.41c0.25-0.29,0.37-0.68,0.33-1.07L14.96,5H13v4.69 C13,10.41,13.55,11,14.22,11z" opacity=".3"/><path d="M18.91,4.99L16.98,5l0.58,4.86c0.08,0.65,0.6,1.14,1.21,1.14c0.49,0,0.8-0.29,0.93-0.47 c0.26-0.33,0.35-0.76,0.25-1.17L18.91,4.99z" opacity=".3"/><path d="M21.9,8.89l-1.05-4.37c-0.22-0.9-1-1.52-1.91-1.52H5.05C4.15,3,3.36,3.63,3.15,4.52L2.1,8.89 c-0.24,1.02-0.02,2.06,0.62,2.88C2.8,11.88,2.91,11.96,3,12.06V19c0,1.1,0.9,2,2,2h14c1.1,0,2-0.9,2-2v-6.94 c0.09-0.09,0.2-0.18,0.28-0.28C21.92,10.96,22.15,9.91,21.9,8.89z M13,5h1.96l0.54,4.52c0.05,0.39-0.07,0.78-0.33,1.07 C14.95,10.85,14.63,11,14.22,11C13.55,11,13,10.41,13,9.69V5z M8.49,9.52L9.04,5H11v4.69C11,10.41,10.45,11,9.71,11 c-0.34,0-0.65-0.15-0.89-0.41C8.57,10.3,8.45,9.91,8.49,9.52z M4.29,10.53c-0.26-0.33-0.35-0.76-0.25-1.17L5.05,5h1.97L6.44,9.86 C6.36,10.51,5.84,11,5.23,11C4.73,11,4.43,10.71,4.29,10.53z M19,19H5v-6.03C5.08,12.98,5.15,13,5.23,13 c0.87,0,1.66-0.36,2.24-0.95c0.6,0.6,1.4,0.95,2.31,0.95c0.87,0,1.65-0.36,2.23-0.93c0.59,0.57,1.39,0.93,2.29,0.93 c0.84,0,1.64-0.35,2.24-0.95c0.58,0.59,1.37,0.95,2.24,0.95c0.08,0,0.15-0.02,0.23-0.03V19z M19.71,10.53 C19.57,10.71,19.27,11,18.77,11c-0.61,0-1.14-0.49-1.21-1.14L16.98,5l1.93-0.01l1.05,4.37C20.06,9.78,19.97,10.21,19.71,10.53z"/></g></g></svg>
